X:1
T:Title
%%score [ ( 1 2 ) ( 3 4 ) ] { ( 5 6 ) | ( 7 8 ) }
L:1/8
Q:1/4=120
M:4/4
K:D
V:1 treble nm="Midi_74"
V:2 treble 
V:3 bass nm="Midi_74"
V:4 bass 
V:5 treble nm="Org."
V:6 treble 
V:7 bass 
V:8 bass 
V:1
 d8 | d4 (f2 e2) | (d4 c4) || (d6 c2) | B4 (A2 G2) | F4 B4 | E8 || G8 | G4 (A2 G2) |{G} F8 || %10
 (B6 A2) | G4 (F2 E2) |"^William Henry Havergal\n(1793-1870)" D4 E4 | D8 |] %14
V:2
 (F6 G2) | A4 G4 | (F4 E4) || D8 | G4 E4 | D4 D4 | C8 || E8 | E4 E4 | D8 || D8 | D4 C4 | D4 C4 | %13
 D8 |] %14
V:3
 D8 | D4 B,4 | A,8 || A,8 | B,4 C4 | D4 B,4 | A,8 || B,8 | A,4 C4 | D8 || G,8 | B,4 F,4 | F,4 G,4 | %13
 F,8 |] %14
V:4
 (D,6 E,2) | F,4 G,4 | A,8 || F,8 | G,4 A,4 | B,4 G,4 | A,8 || (E,6 D,2) | C,4 A,,4 | B,,8 || %10
 G,,8 | G,,4 A,,4 | B,,4 A,,4 | D,8 |] %14
V:5
 d8 | d4 f2 e2 | [Fd]4 [Ec]4 || d6 c2 | B4 A2 G2 | F4 B4 | E8 || G8 | G4 A2 G2 |{G} F8 || B6 A2 | %11
 G4 F2 E2 | D4 E4 | D8 |] %14
V:6
 F6 G2 | [DA]4 [GB]4 | A8 || [DA]8 | [DG]4 [CE]4 | D8 | C8 || [B,E]8 | [A,E]4 [CE]4 | D8 || D8 | %11
 D4 C4 | D4 C4 | D8 |] %14
V:7
 A,8 | x8 | x8 || x8 | x8 | x8 | x8 || x8 | x8 | x8 || G,8 | B,4 F,4 | F,4 G,4 | F,8 |] %14
V:8
 D,6 E,2 | F,4 G,4 | A,8 || F,8 | G,4 A,4 | B,4 G,4 | A,8 || E,6 D,2 | C,4 A,,4 | B,,8 || G,,8 | %11
 G,,4 A,,4 | B,,4 A,,4 | D,8 |] %14

